X: 22576
T: Lady Mauchline's
R: reel
M: 4/4
K: Eminor
B,EEF GABd|FDAF dFAF|GFEF GABe|dBAF EE E2|B,EEF GABd|
FDAF dFAF|GFEF GABg|fdaf ee e2|:gfef gabg|fede fgaf|
[1 gfef gabg|fdaf eeef:|2 gef^d egfe|dBAF EE E2||

